frontend/src/assets/icons/send-01.svg

<svg width="24" height="24" viewBox="0 0 24 24" fill="none" xmlns="http://www.w3.org/2000/svg">
<g id="send-01">
<path id="Icon" d="M10.4995 13.5002L20.9995 3.00017M10.6271 13.8282L13.2552 20.5862C13.4867 21.1816 13.6025 21.4793 13.7693 21.5662C13.9139 21.6415 14.0862 21.6416 14.2308 21.5664C14.3977 21.4797 14.5139 21.1822 14.7461 20.5871L21.3364 3.69937C21.5461 3.16219 21.6509 2.8936 21.5935 2.72197C21.5437 2.57292 21.4268 2.45596 21.2777 2.40616C21.1061 2.34883 20.8375 2.45364 20.3003 2.66327L3.41258 9.25361C2.8175 9.48584 2.51997 9.60195 2.43326 9.76886C2.35809 9.91354 2.35819 10.0858 2.43353 10.2304C2.52043 10.3972 2.81811 10.513 3.41345 10.7445L10.1715 13.3726C10.2923 13.4196 10.3527 13.4431 10.4036 13.4794C10.4487 13.5115 10.4881 13.551 10.5203 13.5961C10.5566 13.647 10.5801 13.7074 10.6271 13.8282Z" stroke="black" stroke-width="2" stroke-linecap="round" stroke-linejoin="round"/>
</g>
</svg>

<svg xmlns="http://www.w3.org/2000/svg" width="24" height="24" fill="none" viewBox="0 0 24 24">
  <path stroke="#000" stroke-linecap="round" stroke-linejoin="round" stroke-width="2" d="M10.5 13.5 21 3M10.627 13.828l2.628 6.758c.232.596.347.893.514.98a.5.5 0 0 0 .462 0c.167-.086.283-.384.515-.979L21.336 3.7c.21-.537.315-.805.258-.977a.5.5 0 0 0-.316-.316c-.172-.057-.44.048-.978.257L3.413 9.253c-.595.233-.893.349-.98.516a.5.5 0 0 0 0 .461c.087.167.385.283.98.514l6.758 2.629c.121.047.182.07.233.106a.5.5 0 0 1 .116.117c.037.051.06.111.107.232Z"/>
</svg>
